X: 9
T: Ballydesmond, The
Z: Michael Toomey
S: https://thesession.org/tunes/239#setting30513
R: polka
M: 2/4
L: 1/8
K: Ador
|: AB |c2 B2 | A2 G>A | B/c/d ed | g2 ed |
ea g/a/g/e/ | dB G>A | Be dB | A2 :|
|: Bd |ea ag/e/ | dg gd | ea ab | g2 ed |
ea g/a/g/e/ | dB G>A | Be dB | A2 :|
